X:1
T:James Gibb editions
T:Light of those whose dreary dwelling - Barnby
%%score [ ( 1 2 ) ( 3 4 ) ]
L:1/8
Q:1/4=84
M:4/4
K:G
V:1 treble nm="Midi_74"
V:2 treble 
V:3 bass nm="Midi_74"
V:4 bass 
V:1
"^Charles Wesley\n(1707-88)""^87. 87. D""^Light of those whose dreary dwelling""^Joseph Barnby\n(1838-96)" B2 B2 | %1
 A2 G2 d3 c | c2 B2 || e2 d2 | c2 B2 A2 B2 | c4 || B2 F2 | G2 c2 B2 F2 | F2 G2 || A2 A2 | %10
 A2 G2 F2 E2 | D4 ||[M:4/4] D2 E2 | G2 F2 F2 G2 | c2 B2 || B2 A2 | ^G2 B2 e2 d2 | c4 || c2 c2 | %19
 d2 c2 B2 A2 | B2 d2 || G2 c2 | B2 G2 A3 G | G4 || G4 G4 |] %25
V:2
 G2 G2 | F2 G2 A2 F2 | G2 G2 || G2 ^G2 | A2 =F2 E2 E2 | E4 || ^F2 ^D2 | E2 E2 ^D2 D2 | ^D2 E2 || %9
 E2 ^C2 | D2 E2 D2 ^C2 | D4 ||[M:4/4] D2 D2 | D2 D2 D2 D2 | D2 D2 || D2 D2 | E2 E2 F2 ^G2 | %17
 (A2 B2) || A2 G2 | F2 F2 D2 D2 | D2 =F2 || E2 E2 | ^D2 B,2 C2 C2 | B,4 || E4 D4 |] %25
V:3
 D2 D2 | C2 B,2 A,2 D2 | D2 D2 || C2 D2 | E2 D2 C2 ^G,2 | A,4 || F,2 B,2 | B,2 G,2 A,2 B,2 | %8
 A,2 G,2 || E,2 G,2 | F,2 B,2 A,3 G, | F,4 ||[M:4/4] F,2 G,2 | B,2 A,2 A,2 G,2 | F,2 G,2 || %15
"^1. Light of those whose dreary dwelling\nBorders on the shades of death,\nCome, and by thy love’s revealing\nDissipate the clouds beneath:\nThe new heaven and earth’s Creator,\nIn our deepest darkness rise,\nScattering all the night of nature,\nPouring eye-sight on our eyes.\n\n2. Still we wait for thy appearing,\nLife and joy thy beams impart,\nChasing all our fears, and cheering\nEvery poor benighted heart.\nCome, and manifest the favor\nGod hath for our ransom’d race;\nCome, thou universal Saviour,\nCome, and bring the gospel-grace.\n\n\n3. Save us in thy great compassion,\nO thou mild pacific Prince,\nGive the knowledge of salvation,\nGive the pardon of our sins;\nBy thine all-redeeming merit \nEvery burdened soul release, \nEvery weary wandering spirit\nGuide into thy perfect peace." G,2 A,2 | %16
 B,2 ^G,2 A,2 B,2 | (C2 D2) || C2 B,2 | A,2 A,2 D2 C2 | B,2 A,G, || G,2 F,2 | F,2 G,2 G,2 F,2 | %23
 G,4 || G,4 B,4 |] %25
V:4
 G,,2 B,,2 | D,2 G,2 F,2 D,2 | G,2 G,2 || C,2 B,,2 | A,,2 D,2 E,2 E,2 | A,4 || ^D,2 B,,2 | %7
 E,2 B,,2 F,2 B,,2 | E,2 E,2 || ^C,2 A,,2 | D,2 G,,2 A,,2 A,,2 | D,4 ||[M:4/4] D,2 D,2 | %13
 D,2 D,2 C,2 B,,2 | A,,2 G,,2 || G,2 =F,2 | E,2 D,2 C,2 B,,2 | A,,4 || A,,2 A,,2 | %19
 D,2 D,2 F,2 F,2 | G,2 B,,2 || C,2 A,,2 | B,,2 E,2 =D,2 D,2 | G,,4 || C,4 G,,4 |] %25

